packages/foundations/assets/icons/functional/images/human/clothes_hanger_24.svg

<svg width="24" height="24" viewBox="0 0 24 24" fill="none" xmlns="http://www.w3.org/2000/svg">
<g clip-path="url(#clip0_185_1127)">
<path fill-rule="evenodd" clip-rule="evenodd" d="M11.9955 5C13.6546 5 14.9997 6.34503 14.9997 8.0042C14.9997 9.20841 14.3437 10.0216 13.1765 10.701C13.0041 10.8013 12.9948 10.9214 12.9948 11.322C12.9948 11.322 15.4539 12.2709 20.3719 14.1686C21.6596 14.667 22.2993 16.1149 21.8009 17.4025C21.4501 18.3087 20.609 18.9242 19.6505 18.9935L4.52985 19C3.14913 19 2.02985 17.8807 2.02985 16.5C2.02985 15.5283 2.59205 14.6506 3.46092 14.24L10.9948 11.325L10.9991 10.9588C11.0143 10.6049 11.0808 10.2874 11.2671 9.92185C11.4609 9.54175 11.7566 9.21835 12.1545 8.98181C12.7896 8.60428 12.9997 8.34632 12.9997 8.0042C12.9997 7.4496 12.5585 7 11.9955 7C11.6545 7 11.1093 7.23151 10.9649 7.76459C10.8205 8.29766 10.2713 8.61276 9.73822 8.46837C9.20514 8.32399 8.89005 7.7748 9.03443 7.24172C9.38589 5.94414 10.6287 5 11.9955 5ZM11.3926 13.3077L4.34935 16.0337C4.15678 16.1083 4.02985 16.2935 4.02985 16.5C4.02985 16.7455 4.20672 16.9496 4.43997 16.9919L19.4695 17C19.676 17 19.8612 16.8731 19.9357 16.6805C20.0244 16.4516 19.9331 16.1974 19.7309 16.0737L12.6067 13.3077C12.342 13.2002 12.1398 13.1464 12 13.1464C11.8602 13.1464 11.6578 13.2002 11.3926 13.3077Z" fill="#1A1C1F"/>
</g>
<defs>
<clipPath id="clip0_185_1127">
<rect width="24" height="24" fill="white"/>
</clipPath>
</defs>
</svg>

<svg xmlns="http://www.w3.org/2000/svg" width="24" height="24" fill="none"><g clip-path="url(#a)"><path fill="#1A1C1F" fill-rule="evenodd" d="M11.996 5A3.004 3.004 0 0 1 15 8.004c0 1.204-.656 2.018-1.823 2.697-.173.1-.182.22-.182.621l7.377 2.847a2.5 2.5 0 0 1-.721 4.825L4.53 19a2.5 2.5 0 0 1-1.07-4.76l7.535-2.915.004-.366a2.38 2.38 0 0 1 1.156-1.977c.635-.378.845-.636.845-.978A1 1 0 0 0 11.995 7c-.34 0-.886.232-1.03.765a1 1 0 0 1-1.93-.523C9.384 5.944 10.628 5 11.994 5m-.603 8.308-7.044 2.726a.5.5 0 0 0 .091.958L19.47 17a.5.5 0 0 0 .26-.926l-7.123-2.766q-.397-.162-.607-.162t-.607.162" clip-rule="evenodd"/></g><defs><clipPath id="a"><path fill="#fff" d="M0 0h24v24H0z"/></clipPath></defs></svg>
